images/transit/transit-shelter-02-left.svg

<?xml version="1.0" standalone="no"?><!DOCTYPE svg PUBLIC "-//W3C//DTD SVG 1.1//EN" "http://www.w3.org/Graphics/SVG/1.1/DTD/svg11.dtd"><svg width="216px" height="288px" version="1.1" xmlns="http://www.w3.org/2000/svg" xmlns:xlink="http://www.w3.org/1999/xlink" xml:space="preserve" style="fill-rule:evenodd;clip-rule:evenodd;stroke-linejoin:round;stroke-miterlimit:1.41421;"><g><g id="transit-shelter-02-left" transform="matrix(0.5,0,0,0.5,-18.8154,-12)"><g id="pole"><path d="M459.26,600l-24.163,0l8.815,-566.29l12.539,5.339l2.809,560.951Z" style="fill:#e4e2dc;fill-rule:nonzero;"/><path d="M435.095,600l24.167,0l-20.225,-203.396l-3.942,203.396Z" style="fill:#c1bebb;fill-rule:nonzero;"/><path d="M457.195,183.035l-13.28,-149.325l12.537,5.357l0.743,143.968Z" style="fill:#c1bebb;fill-rule:nonzero;"/><path d="M441,162l-49,0l-2,-99l53,0l-2,99Z" style="fill:#d8d3cb;fill-rule:nonzero;"/><path d="M404.384,84.1016l0,-5.731l16.697,0.147l0.303,-5.49l-22.869,0.449l0.057,16.543l16.277,0.211l0.029,8.394l-15.793,0.493l-0.181,4.855l22.076,-0.055l-0.002,-19.39" style="fill:#313156;fill-rule:nonzero;"/></g><g id="seat"><path d="M85.7949,600l0.211,-55.441l63.734,-5.056l-4.156,10.513l-45.293,3.901l-2.291,46.083l-12.205,0Z" style="fill:#5c5e5f;fill-rule:nonzero;"/><path d="M189,539.508l-98.25,4.801l-1.125,-111.7l10.355,5.362l3.455,90.413l85.565,4.725l0,6.399Z" style="fill:#679a45;fill-rule:nonzero;"/></g><g id="ad-panel"><path d="M72,600l-21,0l4,-372l17,0l0,372Z" style="fill:#5c5e5f;fill-rule:nonzero;"/><path d="M309,600l-21,0l0,-432l17,0l4,432Z" style="fill:#5c5e5f;fill-rule:nonzero;"/><path d="M288,600l21,0l-2.633,-237l-18.367,237Z" style="fill:#2a2b2a;fill-rule:nonzero;"/><path d="M72,600l-21,0l21,-237l0,237Z" style="fill:#2a2b2a;fill-rule:nonzero;"/><rect x="72" y="230" width="216" height="286" style="fill:#c1bebb;fill-rule:nonzero;"/><path d="M85.9883,246.602l0,250.834l187.051,0l0,-250.343l-187.051,-0.491Z" style="fill:#f5f3e9;fill-rule:nonzero;"/><path d="M270.101,246.947l-184.112,182.461l0,-182.806l184.112,0.345Z" style="fill:#e7e6de;fill-rule:nonzero;"/><path d="M273.039,497.437l0.01,-152.499l-157.549,152.105l157.539,0.394Z" style="fill:#e7e6de;fill-rule:nonzero;"/><path d="M121.111,497.478l103.005,-103.335l48.923,-48.922l0,-8.636l-160.734,160.86l8.806,0.033Z" style="fill:#d8d3cb;fill-rule:nonzero;"/></g><g id="roof"><path d="M51.6621,196l-3.662,32l24,0l293,-58.5l-1,-21.082l-312.338,47.582Z" style="fill:#679a45;fill-rule:nonzero;"/></g></g></g></svg>

<?xml version="1.0" encoding="UTF-8" standalone="no"?>
<!DOCTYPE svg PUBLIC "-//W3C//DTD SVG 1.1//EN" "http://www.w3.org/Graphics/SVG/1.1/DTD/svg11.dtd">
<svg width="100%" height="100%" viewBox="0 0 216 288" version="1.1" xmlns="http://www.w3.org/2000/svg" xmlns:xlink="http://www.w3.org/1999/xlink" xml:space="preserve" style="fill-rule:evenodd;clip-rule:evenodd;stroke-linejoin:round;stroke-miterlimit:1.41421;">
    <g id="transit-shelter-02-left" transform="matrix(0.5,0,0,0.5,-18.8154,-12)">
        <g id="pole">
            <path d="M459.26,600L435.097,600L443.912,33.71L456.451,39.049L459.26,600Z" style="fill:rgb(228,226,220);fill-rule:nonzero;"/>
            <path d="M435.095,600L459.262,600L439.037,396.604L435.095,600Z" style="fill:rgb(193,190,187);fill-rule:nonzero;"/>
            <path d="M457.195,183.035L443.915,33.71L456.452,39.067L457.195,183.035Z" style="fill:rgb(193,190,187);fill-rule:nonzero;"/>
            <path d="M441,162L392,162L390,63L443,63L441,162Z" style="fill:rgb(216,211,203);fill-rule:nonzero;"/>
            <path d="M404.384,84.102L404.384,78.371L421.081,78.518L421.384,73.028L398.515,73.477L398.572,90.02L414.849,90.231L414.878,98.625L399.085,99.118L398.904,103.973L420.98,103.918L420.978,84.528" style="fill:rgb(49,49,86);fill-rule:nonzero;"/>
        </g>
        <g id="seat">
            <path d="M85.795,600L86.006,544.559L149.74,539.503L145.584,550.016L100.291,553.917L98,600L85.795,600Z" style="fill:rgb(92,94,95);fill-rule:nonzero;"/>
            <path d="M189,539.508L90.75,544.309L89.625,432.609L99.98,437.971L103.435,528.384L189,533.109L189,539.508Z" style="fill:rgb(137,187,106);fill-rule:nonzero;"/>
        </g>
        <g id="ad-panel">
            <path d="M72,600L51,600L55,228L72,228L72,600Z" style="fill:rgb(92,94,95);fill-rule:nonzero;"/>
            <path d="M309,600L288,600L288,168L305,168L309,600Z" style="fill:rgb(92,94,95);fill-rule:nonzero;"/>
            <path d="M288,600L309,600L306.367,363L288,600Z" style="fill:rgb(42,43,42);fill-rule:nonzero;"/>
            <path d="M72,600L51,600L72,363L72,600Z" style="fill:rgb(42,43,42);fill-rule:nonzero;"/>
            <rect x="72" y="230" width="216" height="286" style="fill:rgb(193,190,187);fill-rule:nonzero;"/>
            <path d="M85.988,246.602L85.988,497.436L273.039,497.436L273.039,247.093L85.988,246.602Z" style="fill:rgb(245,243,233);fill-rule:nonzero;"/>
            <path d="M270.101,246.947L85.989,429.408L85.989,246.602L270.101,246.947Z" style="fill:rgb(231,230,222);fill-rule:nonzero;"/>
            <path d="M273.039,497.437L273.049,344.938L115.5,497.043L273.039,497.437Z" style="fill:rgb(231,230,222);fill-rule:nonzero;"/>
            <path d="M121.111,497.478L224.116,394.143L273.039,345.221L273.039,336.585L112.305,497.445L121.111,497.478Z" style="fill:rgb(216,211,203);fill-rule:nonzero;"/>
        </g>
        <g id="roof">
            <path d="M51.662,196L48,228L72,228L365,169.5L364,148.418L51.662,196Z" style="fill:rgb(137,187,106);fill-rule:nonzero;"/>
        </g>
    </g>
</svg>
